svgs/solid/book-atlas.svg

<svg xmlns="http://www.w3.org/2000/svg" viewBox="0 0 448 512"><!-- Font Awesome Pro 6.0.0-alpha2 by @fontawesome - https://fontawesome.com License - https://fontawesome.com/license (Commercial License) --><path d="M334.375 208H295.25C293.75 235 288.75 259.375 281.125 278.375C308.75 265.125 329.125 239.25 334.375 208ZM334.375 176C329.125 144.75 308.75 118.875 281.125 105.625C288.75 124.625 293.75 149 295.25 176H334.375ZM240 97.25C232.25 104.75 219.25 131.75 216.625 176H263.5C260.75 131.75 247.75 104.75 240 97.25ZM263.375 208H216.5C219.25 252.25 232.25 279.25 240 286.75C247.75 279.25 260.75 252.25 263.375 208ZM448 360V24C448 10.744 437.254 0 424 0H96C42.98 0 0 42.98 0 96V416C0 469.02 42.98 512 96 512H424C437.254 512 448 501.254 448 488V472C448 461.582 441.275 452.936 432 449.615V382.385C441.275 379.064 448 370.416 448 360ZM240 64C310.75 64 368 121.25 368 192S310.75 320 240 320S112 262.75 112 192S169.25 64 240 64ZM384 448H96C78.326 448 64 433.672 64 416C64 398.326 78.326 384 96 384H384V448ZM198.875 278.375C191.25 259.375 186.25 235 184.75 208H145.625C150.875 239.25 171.25 265.125 198.875 278.375ZM198.875 105.625C171.25 118.875 150.875 144.75 145.625 176H184.75C186.25 149 191.25 124.625 198.875 105.625Z"/></svg>

<svg xmlns="http://www.w3.org/2000/svg" viewBox="0 0 448 512"><!--! Font Awesome Pro 6.0.0-alpha3 by @fontawesome - https://fontawesome.com License - https://fontawesome.com/license (Commercial License) --><path d="M334.4 208h-39.13c-1.5 27-6.5 51.38-14.12 70.38C308.8 265.1 329.1 239.3 334.4 208zM334.4 176c-5.25-31.25-25.62-57.13-53.25-70.38C288.8 124.6 293.8 149 295.3 176H334.4zM240 97.25C232.3 104.8 219.3 131.8 216.6 176h46.88C260.8 131.8 247.8 104.8 240 97.25zM263.4 208H216.5C219.3 252.3 232.3 279.3 240 286.8C247.8 279.3 260.8 252.3 263.4 208zM448 360V24C448 10.74 437.3 0 424 0H96C42.98 0 0 42.98 0 96v320c0 53.02 42.98 96 96 96h328c13.25 0 24-10.75 24-24v-16c0-10.42-6.725-19.06-16-22.38v-67.23C441.3 379.1 448 370.4 448 360zM240 64c70.75 0 128 57.25 128 128s-57.25 128-128 128s-128-57.25-128-128S169.3 64 240 64zM384 448H96c-17.67 0-32-14.33-32-32c0-17.67 14.33-32 32-32h288V448zM198.9 278.4C191.3 259.4 186.3 235 184.8 208H145.6C150.9 239.3 171.3 265.1 198.9 278.4zM198.9 105.6C171.3 118.9 150.9 144.8 145.6 176h39.13C186.3 149 191.3 124.6 198.9 105.6z"/></svg>
